X:126
T: Elindultam szép hazámból...
M: 2/4
L: 1/8
K: F
GGgg | gffg | 
agfg | dccB | 
ggfg | dBBc | 
dBBc | dcGG | 

